usr/share/icons/biglinux-icons-material/16/actions/view-pages-overview.svg

<svg version="1.1" viewBox="0 0 16 16" xmlns="http://www.w3.org/2000/svg">
    <defs>
        <style type="text/css" id="current-color-scheme">
        .ColorScheme-Text {
        color:#dedede;
      }</style>
    </defs>
    <path d="m6 1v2h-2v2h-2v10h8v-2h2v-2h2v-7l-3-3h-5zm1 1h3v2l-1-1h-2v-1zm-2 2h3v2l-1-1h-2v-1zm6 1h2v5h-1v-4l-1-1zm-8 1h3v3h3v5h-6v-8zm6 1h2v5h-1v-4l-1-1z"  style="fill:currentColor;fill-opacity:1;stroke:none" class="ColorScheme-Text"/>
</svg>

<svg xmlns="http://www.w3.org/2000/svg" viewBox="0 0 16 16"><path d="M6 1v2H4v2H2v10h8v-2h2v-2h2V4l-3-3H6zm1 1h3v2L9 3H7V2zM5 4h3v2L7 5H5V4zm6 1h2v5h-1V6l-1-1zM3 6h3v3h3v5H3V6zm6 1h2v5h-1V8L9 7z" style="fill:currentColor;fill-opacity:1;stroke:none;color:#dedede"/></svg>
